src/assets/logo.svg

<?xml version="1.0" encoding="UTF-8" standalone="no"?>
<svg
   version="1.1"
   viewBox="0 0 964 208"
   id="svg1"
   sodipodi:docname="logo.svg"
   inkscape:version="1.4.3 (0d15f75042, 2025-12-25)"
   xmlns:inkscape="http://www.inkscape.org/namespaces/inkscape"
   xmlns:sodipodi="http://sodipodi.sourceforge.net/DTD/sodipodi-0.dtd"
   xmlns="http://www.w3.org/2000/svg"
   xmlns:svg="http://www.w3.org/2000/svg">
  <defs
     id="defs1" />
  <sodipodi:namedview
     id="namedview1"
     pagecolor="#ffffff"
     bordercolor="#000000"
     borderopacity="0.25"
     inkscape:showpageshadow="2"
     inkscape:pageopacity="0.0"
     inkscape:pagecheckerboard="0"
     inkscape:deskcolor="#d1d1d1"
     inkscape:zoom="0.70637327"
     inkscape:cx="595.29433"
     inkscape:cy="131.65844"
     inkscape:window-width="1536"
     inkscape:window-height="795"
     inkscape:window-x="0"
     inkscape:window-y="0"
     inkscape:window-maximized="1"
     inkscape:current-layer="svg1" />
  <path
     fill-rule="evenodd"
     d="m 852.5,195.94 c -12.51,-2.94 -19.56,-7.74 -23.86,-16.26 -4.13,-8.16 -3.78,-8.69 7.87,-11.9 13.61,-3.75 13.5,-3.75 15.41,-0.36 2.36,4.17 6.12,6.66 11.61,7.68 6.16,1.15 12.09,-0.34 13.03,-3.28 0.95,-3 -1.87,-4.85 -13.43,-8.8 -23.09,-7.89 -30.68,-13.22 -33.73,-23.71 -2.93,-10.09 -0.62,-20.73 5.96,-27.4 10.5,-10.65 28.17,-14.3 45.23,-9.34 10.04,2.92 18.56,11.85 19.96,20.93 l 0.62,4 -10.84,2.77 c -5.95,1.53 -11.16,2.76 -11.56,2.75 -0.4,-0.01 -1.6,-1.71 -2.65,-3.77 -1.06,-2.06 -3.28,-4.54 -4.93,-5.5 -4.1,-2.4 -12.34,-2.35 -14.54,0.08 -4.3,4.75 -0.52,7.93 16.29,13.69 7.35,2.52 14.32,5.08 15.47,5.69 13.18,7.01 18.66,22.87 12.25,35.44 -5.73,11.24 -16.91,16.99 -34.58,17.8 -5.27,0.24 -11.38,0.01 -13.58,-0.51 z M 43,194.75 c 0,-0.14 -0.05,-20.95 -0.11,-46.25 l -0.1,-46 13.35,-0.29 c 18.32,-0.4 35.01,1.12 42.34,3.87 8.28,3.09 14.85,9.82 17.08,17.47 2.41,8.31 1.67,21.3 -1.6,27.83 -2.73,5.45 -8.1,10.51 -14.32,13.48 l -4.14,1.98 4.61,2.06 c 3.83,1.72 14.82,4 19.64,4.08 0.92,0.01 1.25,2.92 1.25,11.16 v 11.14 l -8.68,-0.71 c -18.59,-1.51 -25.89,-3.99 -32.89,-11.19 -2.5,-2.58 -5.67,-6.89 -7.03,-9.57 -1.36,-2.69 -2.91,-4.62 -3.44,-4.29 -0.53,0.33 -0.96,6.13 -0.96,13.04 V 195 H 55.5 C 48.62,195 43,194.89 43,194.75 Z M 132,148.5 V 102 h 33 33 v 10.5 10.5 h -20.61 c -18.38,0 -20.54,0.17 -20,1.58 0.34,0.87 0.61,5.37 0.61,10 V 143 h 15.5 15.5 v 9.5 9.5 h -16.12 -16.11 l 0.6,2.25 c 0.33,1.24 0.61,3.94 0.62,6 L 158,174 h 20 20 v 10.5 10.5 h -33 -33 z m 103,26.96 v -19.53 l -10.33,-16.72 c -5.68,-9.19 -12.88,-20.8 -16,-25.8 -3.12,-5 -5.67,-9.61 -5.67,-10.25 0,-0.83 4.01,-1.16 13.9,-1.16 h 13.9 l 1.85,3.39 c 3.64,6.68 15.86,26.55 16.35,26.58 0.28,0.02 4.69,-6.72 9.8,-14.97 l 9.3,-15 h 13.06 c 10.04,0 12.94,0.29 12.55,1.25 -0.27,0.69 -7.75,12.95 -16.6,27.25 L 261,156.49 V 175.75 195 h -13 -13 z m 108.24,-26.71 0.26,-46.25 13.5,-0.3 c 17.59,-0.39 34.13,1.13 41.22,3.78 12.38,4.63 18.75,14.01 19.58,28.84 0.86,15.49 -4.57,27.2 -15.69,33.87 -6.29,3.77 -12.45,5.3 -24.36,6.04 l -8.75,0.55 v 9.86 9.86 H 355.99 342.98 Z M 408,194.02 c 0,-0.53 2.23,-5.6 4.96,-11.25 2.72,-5.65 12.33,-26.02 21.35,-45.27 15.77,-33.65 16.51,-35 19.18,-35 2.65,0 3.4,1.32 17.1,30 7.88,16.5 17.72,37.03 21.87,45.63 4.15,8.59 7.54,15.9 7.54,16.25 0,0.34 -5.42,0.62 -12.06,0.62 h -12.05 l -2.08,-5 -2.08,-5 h -17.84 -17.83 l -2.16,5 -2.15,5 H 419.88 C 412.82,195 408,194.6 408,194.02 Z m 102.81,0.23 c -0.17,-0.41 -0.17,-21.34 0,-46.5 L 511.11,102 H 523.56 536 v 36 36 h 19 19 v 10.5 10.5 h -31.44 c -17.29,0 -31.58,-0.34 -31.75,-0.75 z M 584,148.49 v -46.52 l 33.25,0.27 33.25,0.26 0.28,10.25 0.29,10.25 H 630.53 610 v 10 10 h 16 16 v 9.5 9.5 h -16 -16 v 6 6 H 630.5 651 V 184.5 195 H 617.5 584 Z M 688,159 V 123 H 674.5 661 V 112.5 102 h 40 40 V 112.5 123 H 727.5 714 v 36 36 h -13 -13 z m 45.91,33.75 c 0.47,-1.24 4.28,-9.39 8.47,-18.11 4.19,-8.72 7.62,-15.99 7.62,-16.16 0,-0.17 2.2,-4.96 4.89,-10.64 10.09,-21.31 15.83,-33.53 18.6,-39.59 2.46,-5.36 3.23,-6.25 5.5,-6.25 2.36,0 3.14,1.06 7.47,10.25 2.65,5.64 8.64,18.13 13.3,27.75 4.66,9.62 12.07,25.15 16.47,34.5 4.4,9.35 8.42,17.8 8.94,18.78 0.87,1.67 0.16,1.76 -11.37,1.5 l -12.3,-0.28 -2.27,-4.75 -2.27,-4.75 -17.73,0.02 -17.73,0.03 -2.19,4.97 -2.18,4.98 H 745.09 733.05 Z M 462,165.42 c 0,-0.32 -1.87,-4.6 -4.15,-9.52 l -4.16,-8.94 -4.34,9.14 c -2.39,5.03 -4.35,9.32 -4.35,9.52 0,0.21 3.82,0.38 8.5,0.38 4.68,0 8.5,-0.26 8.5,-0.58 z m 322.38,-7.17 c -1.96,-4.26 -3.8,-8.31 -4.08,-9 -0.28,-0.69 -0.84,-1.25 -1.24,-1.25 -0.64,0 -8.06,16.05 -8.06,17.44 0,0.31 3.81,0.56 8.47,0.56 h 8.48 z m -401.1,-5.61 c 5.76,-2.44 7.18,-4.98 7.57,-13.61 0.34,-7.46 0.23,-7.91 -2.66,-11.14 -2.87,-3.22 -3.37,-3.38 -11.1,-3.73 L 369,123.79 v 15.1 15.11 h 5.53 c 3.04,0 6.98,-0.61 8.75,-1.36 z M 80.8,148.08 c 8.06,-1.56 11.5,-7.52 9.23,-15.97 C 88.41,126.1 84.6,124.01 75.25,124 H 68 v 12.5 12.5 l 4.25,-0.04 c 2.34,-0.03 6.19,-0.42 8.55,-0.88 z M 41.14,63.25 C 40.53,58.44 39.32,47.98 38.46,40 37.59,32.02 36.62,23.07 36.29,20.09 35.9,16.56 36.04,14.91 36.7,15.31 c 1.55,0.96 14.93,19.96 15.64,22.21 0.35,1.09 0.26,3.33 -0.2,4.98 -2.22,8.07 7.73,12.93 12.27,5.99 1.41,-2.14 1.48,-3.13 0.47,-6.49 -1.14,-3.82 -0.96,-4.47 4.72,-16.96 3.24,-7.14 6.35,-12.98 6.9,-12.98 0.55,0 3.64,5.72 6.86,12.72 5.49,11.9 5.8,12.97 4.84,16.65 -1.18,4.54 -0.21,7.96 2.69,9.51 3.12,1.67 5.58,1.26 8.04,-1.37 1.97,-2.09 2.19,-3.07 1.61,-7.26 -0.66,-4.83 -0.64,-4.88 7.5,-16.33 4.49,-6.31 8.39,-11.7 8.68,-11.98 0.62,-0.61 -0.01,5.89 -3.43,35.25 L 110.64,72 H 76.45 42.26 Z"
     id="path1"
     sodipodi:nodetypes="ccsccccccccccsccccccccsccccccccccsccccsscssccccccscsccccccccccccccccccccssscccccscccccccccccccccccccccsccsccsscccccccsssccccccccccsscccccccccccccccccccccccccccccccccccccccccccssccscssccccccccccccscccssscsssscccccccccsccccccccccccccccccscccccccccccc" />
  <path
     style="opacity:1;fill:none"
     d="m 905.93977,94.097612 c 0,0 -1.00104,37.038418 4.00416,39.040498 5.00519,2.00208 29.03011,-4.00415 29.03011,-4.00415 l 8.00831,-39.040502 z"
     id="path16" />
</svg>

<svg version="1.1" xmlns="http://www.w3.org/2000/svg" xmlns:xlink="http://www.w3.org/1999/xlink" viewBox="0 0 964 208"><path fill-rule="evenodd" d="M852.50,195.94C839.99,193.00 832.94,188.20 828.64,179.68C824.51,171.52 824.86,170.99 836.51,167.78C850.12,164.03 850.01,164.03 851.92,167.42C854.28,171.59 858.04,174.08 863.53,175.10C869.69,176.25 875.62,174.76 876.56,171.82C877.51,168.82 874.69,166.97 863.13,163.02C840.04,155.13 832.45,149.80 829.40,139.31C826.47,129.22 828.78,118.58 835.36,111.91C845.86,101.26 863.53,97.61 880.59,102.57C890.63,105.49 899.15,114.42 900.55,123.50L901.17,127.50L890.33,130.27C884.38,131.80 879.17,133.03 878.77,133.02C878.37,133.01 877.17,131.31 876.12,129.25C875.06,127.19 872.84,124.71 871.19,123.75C867.09,121.35 858.85,121.40 856.65,123.83C852.35,128.58 856.13,131.76 872.94,137.52C880.29,140.04 887.26,142.60 888.41,143.21C901.59,150.22 907.07,166.08 900.66,178.65C894.93,189.89 883.75,195.64 866.08,196.45C860.81,196.69 854.70,196.46 852.50,195.94ZM43.00,194.75C43.00,194.61 42.95,173.80 42.89,148.50L42.79,102.50L56.14,102.21C74.46,101.81 91.15,103.33 98.48,106.08C106.76,109.17 113.33,115.90 115.56,123.55C117.97,131.86 117.23,144.85 113.96,151.38C111.23,156.83 105.86,161.89 99.64,164.86L95.50,166.84L100.11,168.90C103.94,170.62 114.93,172.90 119.75,172.98C120.67,172.99 121.00,175.90 121.00,184.14L121.00,195.28L112.32,194.57C93.73,193.06 86.43,190.58 79.43,183.38C76.93,180.80 73.76,176.49 72.40,173.81C71.04,171.12 69.49,169.19 68.96,169.52C68.43,169.85 68.00,175.65 68.00,182.56L68.00,195.00L55.50,195.00C48.62,195.00 43.00,194.89 43.00,194.75ZM132.00,148.50L132.00,102.00L165.00,102.00L198.00,102.00L198.00,112.50L198.00,123.00L177.39,123.00C159.01,123.00 156.85,123.17 157.39,124.58C157.73,125.45 158.00,129.95 158.00,134.58L158.00,143.00L173.50,143.00L189.00,143.00L189.00,152.50L189.00,162.00L172.88,162.00L156.77,162.00L157.37,164.25C157.70,165.49 157.98,168.19 157.99,170.25L158.00,174.00L178.00,174.00L198.00,174.00L198.00,184.50L198.00,195.00L165.00,195.00L132.00,195.00L132.00,148.50ZM235.00,175.46L235.00,155.93L224.67,139.21C218.99,130.02 211.79,118.41 208.67,113.41C205.55,108.41 203.00,103.80 203.00,103.16C203.00,102.33 207.01,102.00 216.90,102.00L230.80,102.00L232.65,105.39C236.29,112.07 248.51,131.94 249.00,131.97C249.28,131.99 253.69,125.25 258.80,117.00L268.10,102.00L281.16,102.00C291.20,102.00 294.10,102.29 293.71,103.25C293.44,103.94 285.96,116.20 277.11,130.50L261.00,156.49L261.00,175.75L261.00,195.00L248.00,195.00L235.00,195.00L235.00,175.46ZM343.24,148.75L343.50,102.50L357.00,102.20C374.59,101.81 391.13,103.33 398.22,105.98C410.60,110.61 416.97,119.99 417.80,134.82C418.66,150.31 413.23,162.02 402.11,168.69C395.82,172.46 389.66,173.99 377.75,174.73L369.00,175.28L369.00,185.14L369.00,195.00L355.99,195.00L342.98,195.00L343.24,148.75ZM408.00,194.02C408.00,193.49 410.23,188.42 412.96,182.77C415.68,177.12 425.29,156.75 434.31,137.50C450.08,103.85 450.82,102.50 453.49,102.50C456.14,102.50 456.89,103.82 470.59,132.50C478.47,149.00 488.31,169.53 492.46,178.13C496.61,186.72 500.00,194.03 500.00,194.38C500.00,194.72 494.58,195.00 487.94,195.00L475.89,195.00L473.81,190.00L471.73,185.00L453.89,185.00L436.06,185.00L433.90,190.00L431.75,195.00L419.88,195.00C412.82,195.00 408.00,194.60 408.00,194.02ZM510.81,194.25C510.64,193.84 510.64,172.91 510.81,147.75L511.11,102.00L523.56,102.00L536.00,102.00L536.00,138.00L536.00,174.00L555.00,174.00L574.00,174.00L574.00,184.50L574.00,195.00L542.56,195.00C525.27,195.00 510.98,194.66 510.81,194.25ZM584.00,148.49L584.00,101.97L617.25,102.24L650.50,102.50L650.78,112.75L651.07,123.00L630.53,123.00L610.00,123.00L610.00,133.00L610.00,143.00L626.00,143.00L642.00,143.00L642.00,152.50L642.00,162.00L626.00,162.00L610.00,162.00L610.00,168.00L610.00,174.00L630.50,174.00L651.00,174.00L651.00,184.50L651.00,195.00L617.50,195.00L584.00,195.00L584.00,148.49ZM688.00,159.00L688.00,123.00L674.50,123.00L661.00,123.00L661.00,112.50L661.00,102.00L701.00,102.00L741.00,102.00L741.00,112.50L741.00,123.00L727.50,123.00L714.00,123.00L714.00,159.00L714.00,195.00L701.00,195.00L688.00,195.00L688.00,159.00ZM733.91,192.75C734.38,191.51 738.19,183.36 742.38,174.64C746.57,165.92 750.00,158.65 750.00,158.48C750.00,158.31 752.20,153.52 754.89,147.84C764.98,126.53 770.72,114.31 773.49,108.25C775.95,102.89 776.72,102.00 778.99,102.00C781.35,102.00 782.13,103.06 786.46,112.25C789.11,117.89 795.10,130.38 799.76,140.00C804.42,149.62 811.83,165.15 816.23,174.50C820.63,183.85 824.65,192.30 825.17,193.28C826.04,194.95 825.33,195.04 813.80,194.78L801.50,194.50L799.23,189.75L796.96,185.00L779.23,185.02L761.50,185.05L759.31,190.02L757.13,195.00L745.09,195.00L733.05,195.00L733.91,192.75ZM462.00,165.42C462.00,165.10 460.13,160.82 457.85,155.90L453.69,146.96L449.35,156.10C446.96,161.13 445.00,165.42 445.00,165.62C445.00,165.83 448.82,166.00 453.50,166.00C458.18,166.00 462.00,165.74 462.00,165.42ZM784.38,158.25C782.42,153.99 780.58,149.94 780.30,149.25C780.02,148.56 779.46,148.00 779.06,148.00C778.42,148.00 771.00,164.05 771.00,165.44C771.00,165.75 774.81,166.00 779.47,166.00L787.95,166.00L784.38,158.25ZM383.28,152.64C389.04,150.20 390.46,147.66 390.85,139.03C391.19,131.57 391.08,131.12 388.19,127.89C385.32,124.67 384.82,124.51 377.09,124.16L369.00,123.79L369.00,138.89L369.00,154.00L374.53,154.00C377.57,154.00 381.51,153.39 383.28,152.64ZM80.80,148.08C88.86,146.52 92.30,140.56 90.03,132.11C88.41,126.10 84.60,124.01 75.25,124.00L68.00,124.00L68.00,136.50L68.00,149.00L72.25,148.96C74.59,148.93 78.44,148.54 80.80,148.08ZM917.08,120.41C914.40,118.16 914.00,117.17 914.00,112.87C914.00,108.94 914.51,107.40 916.45,105.45C920.71,101.20 930.55,102.51 932.89,107.66C937.70,118.21 925.83,127.78 917.08,120.41ZM928.02,119.33C932.53,116.67 933.27,111.58 929.75,107.50C926.80,104.06 921.87,103.83 918.53,106.97C915.56,109.76 914.99,112.65 916.70,116.20C919.04,121.06 923.16,122.20 928.02,119.33ZM920.00,113.06C920.00,107.49 920.76,106.58 924.28,107.92C926.86,108.90 928.50,112.57 926.82,113.61C926.27,113.95 926.05,115.07 926.32,116.11C926.94,118.49 925.15,118.57 923.39,116.25C922.13,114.58 922.06,114.58 922.03,116.25C922.01,117.21 921.55,118.00 921.00,118.00C920.45,118.00 920.00,115.78 920.00,113.06ZM924.82,111.33C924.34,108.82 922.00,108.48 922.00,110.92C922.00,112.15 922.65,113.00 923.57,113.00C924.50,113.00 925.01,112.32 924.82,111.33ZM41.14,63.25C40.53,58.44 39.32,47.98 38.46,40.00C37.59,32.02 36.62,23.07 36.29,20.09C35.90,16.56 36.04,14.91 36.70,15.31C38.25,16.27 51.63,35.27 52.34,37.52C52.69,38.61 52.60,40.85 52.14,42.50C49.92,50.57 59.87,55.43 64.41,48.49C65.82,46.35 65.89,45.36 64.88,42.00C63.74,38.18 63.92,37.53 69.60,25.04C72.84,17.90 75.95,12.06 76.50,12.06C77.05,12.06 80.14,17.78 83.36,24.78C88.85,36.68 89.16,37.75 88.20,41.43C87.02,45.97 87.99,49.39 90.89,50.94C94.01,52.61 96.47,52.20 98.93,49.57C100.90,47.48 101.12,46.50 100.54,42.31C99.88,37.48 99.90,37.43 108.04,25.98C112.53,19.67 116.43,14.28 116.72,14.00C117.34,13.39 116.71,19.89 113.29,49.25L110.64,72.00L76.45,72.00L42.26,72.00L41.14,63.25Z"/></svg>
